; generated by Slic3r 1.2.9 on 2015-07-18 at 03:11:08

; external perimeters extrusion width = 0.45mm
; perimeters extrusion width = 0.59mm
; infill extrusion width = 0.59mm
; solid infill extrusion width = 0.59mm
; top infill extrusion width = 0.59mm

M107
M104 P220 ; set temperature


M109 P220 ; wait for temperature to be reached
G21 ; set units to millimeters
G90 ; use absolute coordinates
G1 Z0.350 F4800.000
G22 ; retract
G1 X18.028 Y14.795 F4800.000
G23 ; unretract
M700 P0.218711
G1 X17.024 Y16.019 F1800.000
G1 X16.019 Y17.024
G1 X13.572 Y19.032
G1 X12.390 Y19.822
G1 X9.598 Y21.314
G1 X8.285 Y21.858
G1 X5.255 Y22.777
G1 X3.861 Y23.055
G1 X2.629 Y23.176
G1 X0.711 Y23.365
G1 X-0.711 Y23.365
G1 X-3.861 Y23.055
G1 X-5.255 Y22.777
G1 X-8.285 Y21.858
G1 X-9.598 Y21.314
G1 X-12.390 Y19.822
G1 X-13.572 Y19.032
G1 X-16.019 Y17.024
G1 X-17.024 Y16.019
G1 X-19.032 Y13.572
G1 X-19.822 Y12.390
G1 X-21.314 Y9.598
G1 X-21.858 Y8.285
G1 X-22.777 Y5.255
G1 X-23.055 Y3.861
G1 X-23.244 Y1.943
G1 X-23.365 Y0.711
G1 X-23.365 Y-0.711
G1 X-23.055 Y-3.861
G1 X-22.777 Y-5.255
G1 X-21.858 Y-8.285
G1 X-21.314 Y-9.598
G1 X-20.406 Y-11.298
G1 X-19.822 Y-12.390
G1 X-19.032 Y-13.572
G1 X-17.024 Y-16.019
G1 X-16.019 Y-17.024
G1 X-13.572 Y-19.032
G1 X-12.390 Y-19.822
G1 X-9.598 Y-21.314
G1 X-8.285 Y-21.858
G1 X-7.100 Y-22.218
G1 X-5.255 Y-22.777
G1 X-3.861 Y-23.055
G1 X-0.711 Y-23.365
G1 X0.711 Y-23.365
G1 X2.629 Y-23.176
M700 P0.218711
G1 X3.861 Y-23.055 F1800.000
G1 X5.255 Y-22.777
G1 X8.285 Y-21.858
G1 X9.598 Y-21.314
G1 X12.390 Y-19.822
G1 X13.572 Y-19.032
G1 X16.019 Y-17.024
G1 X17.024 Y-16.019
G1 X19.032 Y-13.572
G1 X19.822 Y-12.390
G1 X21.314 Y-9.598
G1 X21.858 Y-8.285
G1 X22.777 Y-5.255
G1 X23.055 Y-3.861
G1 X23.365 Y-0.711
G1 X23.365 Y0.711
G1 X23.055 Y3.861
G1 X22.777 Y5.255
G1 X21.858 Y8.285
G1 X21.314 Y9.598
G1 X19.822 Y12.390
G1 X19.032 Y13.572
G1 X18.071 Y14.743
M700 P0.000000
G1 X17.545 Y14.399 F4800.000
M700 P0.218711
G1 X16.541 Y15.623 F1800.000
G1 X15.623 Y16.541
G1 X13.175 Y18.549
G1 X12.095 Y19.271
G1 X9.303 Y20.763
G1 X8.103 Y21.260
G1 X5.074 Y22.179
G1 X3.800 Y22.433
G1 X2.568 Y22.554
G1 X0.649 Y22.743
G1 X-0.649 Y22.743
G1 X-3.800 Y22.433
G1 X-5.074 Y22.179
G1 X-8.103 Y21.260
G1 X-9.303 Y20.763
G1 X-12.095 Y19.271
G1 X-13.175 Y18.549
G1 X-15.623 Y16.541
G1 X-16.541 Y15.623
G1 X-18.549 Y13.175
G1 X-19.271 Y12.095
G1 X-20.763 Y9.303
G1 X-21.260 Y8.103
G1 X-22.179 Y5.074
G1 X-22.433 Y3.800
G1 X-22.622 Y1.881
G1 X-22.743 Y0.649
G1 X-22.743 Y-0.649
G1 X-22.433 Y-3.800
G1 X-22.179 Y-5.074
G1 X-21.260 Y-8.103
G1 X-20.763 Y-9.303
G1 X-19.271 Y-12.095
G1 X-18.549 Y-13.175
G1 X-16.541 Y-15.623
G1 X-15.623 Y-16.541
G1 X-13.175 Y-18.549
G1 X-12.095 Y-19.271
G1 X-9.303 Y-20.763
G1 X-8.103 Y-21.260
G1 X-6.919 Y-21.620
G1 X-5.074 Y-22.179
G1 X-3.800 Y-22.433
G1 X-0.649 Y-22.743
G1 X0.649 Y-22.743
G1 X2.568 Y-22.554
M700 P0.218711
G1 X3.800 Y-22.433 F1800.000
G1 X5.074 Y-22.179
G1 X8.103 Y-21.260
G1 X9.303 Y-20.763
G1 X12.095 Y-19.271
G1 X13.175 Y-18.549
G1 X15.623 Y-16.541
G1 X16.541 Y-15.623
G1 X18.549 Y-13.175
G1 X19.271 Y-12.095
G1 X20.763 Y-9.303
G1 X21.260 Y-8.103
G1 X22.179 Y-5.074
G1 X22.433 Y-3.800
G1 X22.743 Y-0.649
G1 X22.743 Y0.649
G1 X22.433 Y3.800
G1 X22.179 Y5.074
G1 X21.260 Y8.103
G1 X20.763 Y9.303
G1 X19.271 Y12.095
G1 X18.549 Y13.175
G1 X17.588 Y14.347
G22 ; retract
G1 X2.568 Y-3.181 F4800.000
G23 ; unretract
M700 P0.218711
G1 X2.904 Y-2.904 F1800.000
G1 X3.415 Y-2.282
G1 X3.795 Y-1.572
G1 X4.028 Y-0.801
G1 X4.108 Y-0.000
G1 X4.028 Y0.801
G1 X3.795 Y1.572
G1 X3.415 Y2.282
G1 X2.904 Y2.904
G1 X2.282 Y3.415
G1 X1.572 Y3.795
G1 X0.801 Y4.028
G1 X0.000 Y4.108
G1 X-0.801 Y4.028
G1 X-1.572 Y3.795
G1 X-2.282 Y3.415
G1 X-2.904 Y2.904
G1 X-3.415 Y2.282
G1 X-3.795 Y1.572
G1 X-4.028 Y0.801
G1 X-4.108 Y-0.000
G1 X-4.028 Y-0.801
G1 X-3.795 Y-1.572
G1 X-3.415 Y-2.282
G1 X-2.904 Y-2.904
G1 X-2.282 Y-3.415
G1 X-1.572 Y-3.795
G1 X-0.801 Y-4.028
M700 P0.218711
G1 X-0.033 Y-4.104 F1800.000
G1 X0.794 Y-4.031
G1 X1.572 Y-3.795
G1 X2.282 Y-3.415
G1 X2.516 Y-3.224
M700 P0.000000
G1 X2.171 Y-2.698 F4800.000
M700 P0.218711
G1 X2.460 Y-2.460 F1800.000
G1 X2.893 Y-1.933
G1 X3.215 Y-1.332
G1 X3.413 Y-0.679
G1 X3.480 Y-0.000
G1 X3.413 Y0.679
G1 X3.215 Y1.332
G1 X2.893 Y1.933
G1 X2.460 Y2.460
G1 X1.933 Y2.893
G1 X1.332 Y3.215
G1 X0.679 Y3.413
G1 X0.000 Y3.480
G1 X-0.679 Y3.413
G1 X-1.332 Y3.215
G1 X-1.933 Y2.893
G1 X-2.460 Y2.460
G1 X-2.893 Y1.933
G1 X-3.215 Y1.332
G1 X-3.413 Y0.679
G1 X-3.480 Y-0.000
G1 X-3.413 Y-0.679
G1 X-3.215 Y-1.332
G1 X-2.893 Y-1.933
G1 X-2.460 Y-2.460
G1 X-1.933 Y-2.893
G1 X-1.332 Y-3.215
G1 X-0.679 Y-3.413
M700 P0.218711
G1 X-0.030 Y-3.477 F1800.000
G1 X0.674 Y-3.414
G1 X1.332 Y-3.215
G1 X1.933 Y-2.893
G1 X2.119 Y-2.740
M700 P0.000000
G1 X1.775 Y-2.214 F4800.000
M700 P0.218711
G1 X2.016 Y-2.016 F1800.000
G1 X2.371 Y-1.584
G1 X2.635 Y-1.091
G1 X2.797 Y-0.556
G1 X2.852 Y-0.000
G1 X2.797 Y0.556
G1 X2.635 Y1.091
G1 X2.371 Y1.584
G1 X2.016 Y2.016
G1 X1.584 Y2.371
G1 X1.091 Y2.635
G1 X0.556 Y2.797
G1 X0.000 Y2.852
G1 X-0.556 Y2.797
G1 X-1.091 Y2.635
G1 X-1.584 Y2.371
G1 X-2.016 Y2.016
G1 X-2.371 Y1.584
G1 X-2.635 Y1.091
G1 X-2.797 Y0.556
G1 X-2.852 Y-0.000
G1 X-2.797 Y-0.556
G1 X-2.635 Y-1.091
G1 X-2.371 Y-1.584
G1 X-2.016 Y-2.016
G1 X-1.584 Y-2.371
G1 X-1.091 Y-2.635
G1 X-0.556 Y-2.797
M700 P0.218711
G1 X-0.027 Y-2.849 F1800.000
G1 X0.555 Y-2.797
G1 X1.091 Y-2.635
G1 X1.584 Y-2.371
G1 X1.723 Y-2.257
M700 P0.000000
G1 X2.067 Y-2.324 F4800.000
M700 P0.000000
G1 X9.156 Y-11.208 F4800.000
M700 P0.218711
G1 X10.283 Y-10.283 F1800.000
G1 X12.092 Y-8.079
G1 X13.436 Y-5.565
G1 X14.263 Y-2.837
G1 X14.542 Y-0.000
G1 X14.263 Y2.837
G1 X13.436 Y5.565
G1 X12.092 Y8.079
G1 X10.283 Y10.283
G1 X8.079 Y12.092
G1 X5.565 Y13.435
G1 X2.837 Y14.263
G1 X-0.000 Y14.542
G1 X-2.837 Y14.263
G1 X-5.565 Y13.435
G1 X-8.079 Y12.092
G1 X-10.283 Y10.283
G1 X-12.092 Y8.079
G1 X-13.436 Y5.565
G1 X-14.263 Y2.837
G1 X-14.542 Y-0.000
G1 X-14.263 Y-2.837
G1 X-13.436 Y-5.565
G1 X-12.092 Y-8.079
G1 X-10.283 Y-10.283
G1 X-8.079 Y-12.092
G1 X-5.565 Y-13.436
G1 X-2.837 Y-14.263
G1 X0.000 Y-14.542
G1 X1.556 Y-14.389
M700 P0.218711
G1 X2.837 Y-14.263 F1800.000
G1 X5.565 Y-13.436
G1 X8.079 Y-12.092
G1 X9.104 Y-11.251
M700 P0.000000
G1 X9.552 Y-11.691 F4800.000
M700 P0.218711
G1 X10.727 Y-10.727 F1800.000
G1 X12.614 Y-8.428
G1 X14.016 Y-5.805
G1 X14.879 Y-2.960
G1 X15.170 Y-0.000
G1 X14.879 Y2.960
G1 X14.016 Y5.805
G1 X12.614 Y8.428
G1 X10.727 Y10.727
G1 X8.428 Y12.614
G1 X5.805 Y14.016
G1 X2.960 Y14.879
G1 X-0.000 Y15.170
G1 X-2.960 Y14.879
G1 X-5.805 Y14.016
G1 X-8.428 Y12.614
G1 X-10.727 Y10.727
G1 X-12.614 Y8.428
G1 X-14.016 Y5.805
G1 X-14.879 Y2.960
G1 X-15.170 Y-0.000
G1 X-14.879 Y-2.960
G1 X-14.016 Y-5.805
G1 X-12.614 Y-8.428
G1 X-10.727 Y-10.727
G1 X-8.428 Y-12.614
G1 X-5.805 Y-14.016
G1 X-2.960 Y-14.879
G1 X0.000 Y-15.170
G1 X1.823 Y-14.991
M700 P0.218711
G1 X2.960 Y-14.879 F1800.000
G1 X5.805 Y-14.016
G1 X8.428 Y-12.614
G1 X9.500 Y-11.734
M700 P0.000000
G1 X9.949 Y-12.174 F4800.000
M700 P0.218711
G1 X11.171 Y-11.171 F1800.000
G1 X13.136 Y-8.777
G1 X14.596 Y-6.046
G1 X15.495 Y-3.082
G1 X15.798 Y-0.000
G1 X15.495 Y3.082
G1 X14.596 Y6.046
G1 X13.136 Y8.777
G1 X11.171 Y11.171
G1 X8.777 Y13.136
G1 X6.046 Y14.596
G1 X3.082 Y15.495
G1 X-0.000 Y15.798
G1 X-3.082 Y15.495
G1 X-6.046 Y14.596
G1 X-8.777 Y13.136
G1 X-11.171 Y11.171
G1 X-13.136 Y8.777
G1 X-14.596 Y6.046
G1 X-15.495 Y3.082
G1 X-15.798 Y-0.000
G1 X-15.495 Y-3.082
G1 X-14.596 Y-6.046
G1 X-13.136 Y-8.777
G1 X-11.171 Y-11.171
G1 X-8.777 Y-13.136
G1 X-6.046 Y-14.596
G1 X-3.082 Y-15.495
G1 X0.000 Y-15.798
G1 X1.884 Y-15.613
M700 P0.218711
G1 X3.082 Y-15.495 F1800.000
G1 X6.046 Y-14.596
G1 X8.777 Y-13.136
G1 X9.897 Y-12.217
M700 P0.000000
G1 X9.876 Y-11.730 F4800.000
M700 P0.000000
G1 X9.629 Y-10.183 F4800.000
M700 P0.222867
G1 X10.183 Y-9.629 F1800.000
M700 P0.000000
G1 X12.426 Y-6.485 F4800.000
M700 P0.222867
G1 X6.485 Y-12.426 F1800.000
M700 P0.000000
G1 X2.472 Y-3.831 F4800.000
M700 P0.222867
G1 X-6.341 Y-12.645 F1800.000
G1 X-5.754 Y-12.958
G1 X12.958 Y5.754
G1 X13.213 Y5.108
G1 X-5.108 Y-13.213
G1 X-4.417 Y-13.422
G1 X13.422 Y4.417
G1 X13.632 Y3.726
G1 X-3.726 Y-13.632
G1 X-3.035 Y-13.842
G1 X13.842 Y3.035
G1 X13.953 Y2.246
G1 X-2.246 Y-13.953
G1 X-1.427 Y-14.034
G1 X14.034 Y1.427
G1 X14.115 Y0.607
G1 X-0.607 Y-14.115
G1 X0.288 Y-14.120
G1 X14.120 Y-0.288
G1 X14.022 Y-1.287
G1 X1.287 Y-14.022
G1 X2.286 Y-13.923
G1 X13.923 Y-2.286
G1 X13.625 Y-3.485
G1 X3.485 Y-13.625
G1 X4.778 Y-13.233
G1 X13.233 Y-4.778
M700 P0.000000
G1 X4.403 Y-1.000 F4800.000
M700 P0.222867
G1 X12.331 Y6.928 F1800.000
G1 X12.017 Y7.515
G1 X4.478 Y-0.025
G1 X4.393 Y0.791
G1 X11.676 Y8.074
G1 X11.270 Y8.569
G1 X4.184 Y1.482
G1 X3.893 Y2.092
G1 X10.864 Y9.063
G1 X10.458 Y9.558
G1 X3.541 Y2.640
G1 X3.135 Y3.135
G1 X10.038 Y10.038
G1 X9.558 Y10.458
G1 X2.640 Y3.541
G1 X2.092 Y3.893
G1 X9.063 Y10.864
G1 X8.569 Y11.270
G1 X1.482 Y4.184
G1 X0.791 Y4.393
G1 X8.074 Y11.676
G1 X7.515 Y12.017
G1 X-0.025 Y4.478
G1 X-1.000 Y4.403
G1 X6.928 Y12.331
G1 X6.341 Y12.645
G1 X-2.472 Y3.831
M700 P0.000000
G1 X-3.831 Y2.472 F4800.000
M700 P0.222867
G1 X-12.645 Y-6.341 F1800.000
G1 X-12.331 Y-6.928
G1 X-4.403 Y1.000
G1 X-4.478 Y0.025
G1 X-12.017 Y-7.515
G1 X-11.676 Y-8.074
G1 X-4.393 Y-0.791
G1 X-4.184 Y-1.482
G1 X-11.270 Y-8.569
G1 X-10.864 Y-9.063
G1 X-3.893 Y-2.092
G1 X-3.541 Y-2.640
G1 X-10.458 Y-9.558
G1 X-10.038 Y-10.038
G1 X-3.135 Y-3.135
G1 X-2.640 Y-3.541
G1 X-9.558 Y-10.458
G1 X-9.063 Y-10.864
G1 X-2.092 Y-3.893
G1 X-1.482 Y-4.184
G1 X-8.569 Y-11.270
G1 X-8.074 Y-11.676
G1 X-0.791 Y-4.393
G1 X0.025 Y-4.478
G1 X-7.515 Y-12.017
G1 X-6.928 Y-12.331
G1 X0.998 Y-4.405
M700 P0.000000
G1 X3.831 Y-2.472 F4800.000
M700 P0.222867
G1 X12.645 Y6.341 F1800.000
M700 P0.000000
G1 X5.754 Y12.958 F4800.000
M700 P0.222867
G1 X-12.958 Y-5.754 F1800.000
G1 X-13.213 Y-5.108
G1 X5.108 Y13.213
G1 X4.417 Y13.422
G1 X-13.422 Y-4.417
G1 X-13.632 Y-3.726
G1 X3.726 Y13.632
G1 X3.035 Y13.842
G1 X-13.842 Y-3.035
G1 X-13.953 Y-2.246
G1 X2.246 Y13.953
G1 X1.427 Y14.034
G1 X-14.034 Y-1.427
G1 X-14.115 Y-0.607
G1 X0.607 Y14.115
G1 X-0.288 Y14.120
G1 X-14.120 Y0.288
G1 X-14.022 Y1.287
G1 X-1.287 Y14.022
G1 X-2.286 Y13.923
G1 X-13.923 Y2.286
G1 X-13.625 Y3.485
G1 X-3.485 Y13.625
G1 X-4.778 Y13.233
G1 X-13.233 Y4.778
M700 P0.000000
G1 X-12.426 Y6.485 F4800.000
M700 P0.222867
G1 X-6.485 Y12.426 F1800.000
M700 P0.000000
G1 X-9.629 Y10.182 F4800.000
M700 P0.222867
G1 X-10.182 Y9.629 F1800.000
G1 Z0.650 F4800.000
G22 ; retract
G1 X2.330 Y-2.875 F4800.000
G23 ; unretract
M700 P0.159043
G1 X2.630 Y-2.630 F900.000
G1 X3.092 Y-2.066
G1 X3.436 Y-1.423
G1 X3.647 Y-0.725
G1 X3.719 Y-0.000
G1 X3.647 Y0.725
G1 X3.436 Y1.423
G1 X3.092 Y2.066
G1 X2.630 Y2.630
G1 X2.066 Y3.092
G1 X1.423 Y3.436
G1 X0.725 Y3.647
G1 X0.000 Y3.719
G1 X-0.725 Y3.647
G1 X-1.423 Y3.436
G1 X-2.066 Y3.092
G1 X-2.630 Y2.630
G1 X-3.092 Y2.066
G1 X-3.436 Y1.423
G1 X-3.647 Y0.725
G1 X-3.719 Y-0.000
G1 X-3.647 Y-0.725
G1 X-3.436 Y-1.423
G1 X-3.092 Y-2.066
G1 X-2.630 Y-2.630
G1 X-2.066 Y-3.092
G1 X-1.423 Y-3.436
G1 X-0.725 Y-3.647
G1 X-0.194 Y-3.699
M700 P0.159043
G1 X-0.003 Y-3.719 F900.000
G1 X0.725 Y-3.647
G1 X1.423 Y-3.436
G1 X2.066 Y-3.092
G1 X2.278 Y-2.918
M700 P0.000000
G1 X1.994 Y-2.465 F4800.000
M700 P0.159043
G1 X2.253 Y-2.253 F900.000
G1 X2.649 Y-1.770
G1 X2.944 Y-1.219
G1 X3.125 Y-0.622
G1 X3.186 Y-0.000
G1 X3.125 Y0.622
G1 X2.944 Y1.219
G1 X2.649 Y1.770
G1 X2.253 Y2.253
G1 X1.770 Y2.649
G1 X1.219 Y2.944
G1 X0.622 Y3.125
G1 X0.000 Y3.186
G1 X-0.622 Y3.125
G1 X-1.219 Y2.944
G1 X-1.770 Y2.649
G1 X-2.253 Y2.253
G1 X-2.649 Y1.770
G1 X-2.944 Y1.219
G1 X-3.125 Y0.622
G1 X-3.186 Y-0.000
G1 X-3.125 Y-0.622
G1 X-2.944 Y-1.219
G1 X-2.649 Y-1.770
G1 X-2.253 Y-2.253
G1 X-1.770 Y-2.649
G1 X-1.219 Y-2.944
G1 X-0.621 Y-3.125
G1 X-0.141 Y-3.172
M700 P0.159043
G1 X-0.002 Y-3.186 F900.000
G1 X0.622 Y-3.125
G1 X1.219 Y-2.944
G1 X1.770 Y-2.649
G1 X1.942 Y-2.508
M700 P0.000000
G1 X1.704 Y-2.111 F4800.000
M700 P0.115686
G1 X1.928 Y-1.928 F900.000
G1 X2.266 Y-1.514
G1 X2.519 Y-1.043
G1 X2.673 Y-0.532
G1 X2.726 Y-0.000
G1 X2.673 Y0.532
G1 X2.519 Y1.043
G1 X2.266 Y1.514
G1 X1.928 Y1.928
G1 X1.514 Y2.266
G1 X1.043 Y2.519
G1 X0.532 Y2.673
G1 X0.000 Y2.726
G1 X-0.532 Y2.673
G1 X-1.043 Y2.519
G1 X-1.514 Y2.266
G1 X-1.928 Y1.928
G1 X-2.266 Y1.514
G1 X-2.519 Y1.043
G1 X-2.673 Y0.532
G1 X-2.726 Y-0.000
G1 X-2.673 Y-0.532
G1 X-2.519 Y-1.043
G1 X-2.266 Y-1.514
G1 X-1.928 Y-1.928
G1 X-1.514 Y-2.266
G1 X-1.043 Y-2.519
G1 X-0.532 Y-2.673
G1 X-0.095 Y-2.716
M700 P0.115686
G1 X-0.001 Y-2.726 F900.000
G1 X0.532 Y-2.673
G1 X1.043 Y-2.519
G1 X1.514 Y-2.266
G1 X1.652 Y-2.154
M700 P0.000000
G1 X1.975 Y-2.213 F4800.000
M700 P0.000000
G1 X9.364 Y-11.444 F4800.000
M700 P0.159043
G1 X10.507 Y-10.507 F3600.000
G1 X12.354 Y-8.255
G1 X13.727 Y-5.686
G1 X14.573 Y-2.899
G1 X14.858 Y-0.000
G1 X14.573 Y2.899
G1 X13.727 Y5.686
G1 X12.354 Y8.255
G1 X10.507 Y10.507
G1 X8.255 Y12.354
G1 X5.686 Y13.727
G1 X2.899 Y14.573
G1 X-0.000 Y14.858
G1 X-2.899 Y14.573
G1 X-5.686 Y13.727
G1 X-8.255 Y12.354
G1 X-10.507 Y10.507
G1 X-12.354 Y8.255
G1 X-13.727 Y5.686
G1 X-14.573 Y2.899
G1 X-14.858 Y-0.000
G1 X-14.573 Y-2.899
G1 X-13.727 Y-5.686
G1 X-12.354 Y-8.255
G1 X-10.507 Y-10.507
G1 X-8.255 Y-12.354
G1 X-5.686 Y-13.727
G1 X-2.899 Y-14.573
G1 X0.000 Y-14.858
G1 X2.858 Y-14.577
M700 P0.159043
G1 X5.688 Y-13.727 F3600.000
G1 X8.255 Y-12.354
G1 X9.311 Y-11.487
M700 P0.000000
G1 X9.700 Y-11.854 F4800.000
M700 P0.159043
G1 X10.883 Y-10.883 F3600.000
G1 X12.797 Y-8.551
G1 X14.220 Y-5.890
G1 X15.095 Y-3.003
G1 X15.391 Y-0.000
G1 X15.095 Y3.003
G1 X14.220 Y5.890
G1 X12.797 Y8.551
G1 X10.883 Y10.883
G1 X8.551 Y12.797
G1 X5.890 Y14.220
G1 X3.003 Y15.095
G1 X-0.000 Y15.391
G1 X-3.003 Y15.095
G1 X-5.890 Y14.220
G1 X-8.551 Y12.797
G1 X-10.883 Y10.883
G1 X-12.797 Y8.551
G1 X-14.220 Y5.890
G1 X-15.095 Y3.003
G1 X-15.391 Y-0.000
G1 X-15.095 Y-3.003
G1 X-14.220 Y-5.890
G1 X-12.797 Y-8.551
G1 X-10.883 Y-10.883
G1 X-8.551 Y-12.797
G1 X-5.890 Y-14.220
G1 X-3.003 Y-15.095
G1 X0.000 Y-15.391
G1 X2.961 Y-15.100
M700 P0.159043
G1 X5.891 Y-14.219 F3600.000
G1 X8.551 Y-12.797
G1 X9.648 Y-11.897
M700 P0.000000
G1 X9.990 Y-12.208 F4800.000
M700 P0.115686
G1 X11.209 Y-11.209 F1800.000
G1 X13.180 Y-8.807
G1 X14.645 Y-6.066
G1 X15.547 Y-3.092
G1 X15.851 Y-0.000
G1 X15.547 Y3.092
G1 X14.645 Y6.066
G1 X13.180 Y8.807
G1 X11.209 Y11.209
G1 X8.807 Y13.180
G1 X6.066 Y14.645
G1 X3.092 Y15.547
G1 X-0.000 Y15.851
G1 X-3.092 Y15.547
G1 X-6.066 Y14.645
G1 X-8.807 Y13.180
G1 X-11.209 Y11.209
G1 X-13.180 Y8.807
G1 X-14.645 Y6.066
G1 X-15.547 Y3.092
G1 X-15.851 Y-0.000
G1 X-15.547 Y-3.092
G1 X-14.645 Y-6.066
G1 X-13.180 Y-8.807
G1 X-11.209 Y-11.209
G1 X-8.807 Y-13.180
G1 X-6.066 Y-14.645
G1 X-3.092 Y-15.547
G1 X0.000 Y-15.851
G1 X3.050 Y-15.551
M700 P0.115686
G1 X6.066 Y-14.645 F1800.000
G1 X8.807 Y-13.180
G1 X9.938 Y-12.251
M700 P0.000000
G1 X9.917 Y-11.764 F4800.000
G22 ; retract
G1 X-0.530 Y-3.998 F4800.000
G23 ; unretract
M700 P0.160064
G1 X7.770 Y-12.298 F1200.000
G1 X8.241 Y-12.014
G1 X0.232 Y-4.005
G1 X0.884 Y-3.902
G1 X8.655 Y-11.674
G1 X9.070 Y-11.333
G1 X1.463 Y-3.727
G1 X1.957 Y-3.466
G1 X9.484 Y-10.993
G1 X9.899 Y-10.653
G1 X2.408 Y-3.163
G1 X2.823 Y-2.823
G1 X10.299 Y-10.299
G1 X10.653 Y-9.899
G1 X3.163 Y-2.409
G1 X3.466 Y-1.957
G1 X10.993 Y-9.484
G1 X11.333 Y-9.070
G1 X3.727 Y-1.463
G1 X3.902 Y-0.884
G1 X11.673 Y-8.655
G1 X12.014 Y-8.241
G1 X4.005 Y-0.232
G1 X3.998 Y0.529
G1 X12.298 Y-7.770
G1 X12.561 Y-7.279
G1 X3.785 Y1.497
G22 ; retract
G1 X-1.497 Y-3.785 F4800.000
G23 ; unretract
M700 P0.160064
G1 X7.279 Y-12.561 F1200.000
G1 X6.787 Y-12.823
G1 X-12.823 Y6.787
G1 X-13.086 Y6.295
G1 X6.295 Y-13.086
G1 X5.804 Y-13.349
G1 X-13.349 Y5.804
G1 X-13.555 Y5.255
G1 X5.254 Y-13.554
G1 X4.673 Y-13.728
G1 X-13.730 Y4.676
G1 X-13.906 Y4.097
G1 X4.093 Y-13.902
G1 X3.513 Y-14.077
G1 X-14.082 Y3.518
G1 X-14.257 Y2.939
G1 X2.933 Y-14.251
G1 X2.255 Y-14.327
G1 X-14.327 Y2.255
G1 X-14.395 Y1.568
G1 X1.568 Y-14.395
G1 X0.881 Y-14.463
G1 X-14.463 Y0.881
G1 X-14.530 Y0.194
G1 X0.194 Y-14.530
G1 X-0.625 Y-14.466
